X:1
T:Title
%%score [ ( 1 2 ) ( 3 4 ) ]
L:1/8
Q:1/4=100
M:4/4
K:Ab
V:1 treble nm="Midi_20"
V:2 treble 
V:3 bass nm="Midi_20"
V:4 bass 
V:1
"^As darker, darker fall around""^Charles Steggall\n(1826-1905)""^Anon.""^St Ambrose (C.M.)" A2 | %1
 A2 B2 c2 A2 | A2 G2 A2 c2 | B2 G2 F2 F2 | E6 || B2 | d2 c2 B2 c2 | A2 F2 E2 E2 | F2 A2 A2 G2 | %9
 A6 |] %10
V:2
 E2 | F2 G2 A2 A2 | F2 E2 E2 E2 | E2 E2 E2 =D2 | E6 || E2 | F2 E2 E2 E2 | C2 D2 C2 E2 | %8
 D2 CD E2 E2 | E6 |] %10
V:3
"^1. As darker, darker, fall around\nThe shadows of the night,\nWe gather here with hymn and prayer,\nTo seek the eternal light.\n\n2. Father in Heaven, to Thee are known\nOur many hopes and fears,\nOur heavy weight of mortal toil,\nOur bitterness of tears.\n\n3. We pray Thee for our absent ones,\nWho have been with us here:\nAnd in our secret heart we name\nThe distant and the dear." C2 | %1
 C2 E2 E2 E2 | D2 B,2 C2 A,2 | B,2 B,2 B,2 B,2 | G,6 || %5
"^4. For weary eyes, and aching hearts,\nAnd feet that from Thee rove,\nThe sick, the poor, the tired, the fall'n,\nWe pray Thee, God of love.\n\n5. We bring to Thee our hopes and fears\nAnd at Thy footstool lay;\nAnd, Father, Thou who lovest all\nWilt hear us as we pray." G,2 | %6
 A,2 A,2 G,2 G,2 | A,2 A,2 A,2 A,2 | A,2 A,2 B,2 B,2 | C6 |] %10
V:4
 A,2 | F,2 E,2 A,2 C,2 | D,2 E,2 A,,2 A,2 | G,2 G,A, B,2 B,,2 | E,6 || E,2 | D,2 A,2 E,2 C,2 | %7
 F,2 D,2 A,2 C,2 | D,2 F,2 E,2 E,2 | A,,6 |] %10

